icons/search-2-fill.svg

<svg width="24" height="24" fill="none" xmlns="http://www.w3.org/2000/svg"><g clip-path="url(#a)"><path d="M11 2c4.968 0 9 4.032 9 9s-4.032 9-9 9-9-4.032-9-9 4.032-9 9-9Zm8.485 16.071 2.829 2.828-1.415 1.415-2.828-2.829 1.414-1.414Z" /></g><defs><clipPath id="a"><path fill="#fff" d="M0 0h24v24H0z"/></clipPath></defs></svg>

<svg xmlns="http://www.w3.org/2000/svg" width="24" height="24" fill="none"><g clip-path="url(#a)"><g><path fill="#121212" d="M11 2C15.968 2 20 6.032 20 11C20 15.968 15.968 20 11 20C6.032 20 2 15.968 2 11C2 6.032 6.032 2 11 2ZM19.485 18.071L22.314 20.899L20.899 22.314L18.071 19.485L19.485 18.071Z"/></g></g><defs><clipPath id="a"><rect width="24" height="24" fill="white"/></clipPath></defs></svg>
